assets/icons/create-desk.svg

<svg width="30" height="30" viewBox="0 0 30 30" fill="none" xmlns="http://www.w3.org/2000/svg">
<path d="M11.7856 16.6071H2.14279C1.71655 16.6071 1.30776 16.7765 1.00637 17.0779C0.704968 17.3793 0.535645 17.788 0.535645 18.2143V27.8571C0.535645 28.2834 0.704968 28.6922 1.00637 28.9936C1.30776 29.295 1.71655 29.4643 2.14279 29.4643H11.7856C12.2119 29.4643 12.6207 29.295 12.9221 28.9936C13.2235 28.6922 13.3928 28.2834 13.3928 27.8571V18.2143C13.3928 17.788 13.2235 17.3793 12.9221 17.0779C12.6207 16.7765 12.2119 16.6071 11.7856 16.6071ZM10.1785 26.25H3.74993V19.8214H10.1785V26.25ZM27.8571 0.535713H18.2142C17.788 0.535713 17.3792 0.705037 17.0778 1.00643C16.7764 1.30783 16.6071 1.71662 16.6071 2.14286V11.7857C16.6071 12.212 16.7764 12.6207 17.0778 12.9221C17.3792 13.2235 17.788 13.3929 18.2142 13.3929H27.8571C28.2833 13.3929 28.6921 13.2235 28.9935 12.9221C29.2949 12.6207 29.4642 12.212 29.4642 11.7857V2.14286C29.4642 1.71662 29.2949 1.30783 28.9935 1.00643C28.6921 0.705037 28.2833 0.535713 27.8571 0.535713V0.535713ZM26.2499 10.1786H19.8214V3.75H26.2499V10.1786ZM27.8571 21.4286H24.6428V18.2143C24.6428 17.788 24.4735 17.3793 24.1721 17.0779C23.8707 16.7765 23.4619 16.6071 23.0356 16.6071C22.6094 16.6071 22.2006 16.7765 21.8992 17.0779C21.5978 17.3793 21.4285 17.788 21.4285 18.2143V21.4286H18.2142C17.788 21.4286 17.3792 21.5979 17.0778 21.8993C16.7764 22.2007 16.6071 22.6095 16.6071 23.0357C16.6071 23.462 16.7764 23.8707 17.0778 24.1721C17.3792 24.4735 17.788 24.6429 18.2142 24.6429H21.4285V27.8571C21.4285 28.2834 21.5978 28.6922 21.8992 28.9936C22.2006 29.295 22.6094 29.4643 23.0356 29.4643C23.4619 29.4643 23.8707 29.295 24.1721 28.9936C24.4735 28.6922 24.6428 28.2834 24.6428 27.8571V24.6429H27.8571C28.2833 24.6429 28.6921 24.4735 28.9935 24.1721C29.2949 23.8707 29.4642 23.462 29.4642 23.0357C29.4642 22.6095 29.2949 22.2007 28.9935 21.8993C28.6921 21.5979 28.2833 21.4286 27.8571 21.4286ZM11.7856 0.535713H2.14279C1.71655 0.535713 1.30776 0.705037 1.00637 1.00643C0.704968 1.30783 0.535645 1.71662 0.535645 2.14286V11.7857C0.535645 12.212 0.704968 12.6207 1.00637 12.9221C1.30776 13.2235 1.71655 13.3929 2.14279 13.3929H11.7856C12.2119 13.3929 12.6207 13.2235 12.9221 12.9221C13.2235 12.6207 13.3928 12.212 13.3928 11.7857V2.14286C13.3928 1.71662 13.2235 1.30783 12.9221 1.00643C12.6207 0.705037 12.2119 0.535713 11.7856 0.535713V0.535713ZM10.1785 10.1786H3.74993V3.75H10.1785V10.1786Z" fill="#B791F5"/>
</svg>

<svg width="30" height="30" viewBox="0 0 30 30" fill="none" xmlns="http://www.w3.org/2000/svg"><path d="M11.786 16.607H2.143a1.607 1.607 0 00-1.607 1.607v9.643a1.607 1.607 0 001.607 1.607h9.643a1.607 1.607 0 001.607-1.607v-9.643a1.607 1.607 0 00-1.607-1.607zm-1.607 9.643h-6.43v-6.429h6.43v6.429zM27.857.536h-9.643a1.607 1.607 0 00-1.607 1.607v9.643a1.607 1.607 0 001.607 1.607h9.643a1.607 1.607 0 001.607-1.607V2.143A1.607 1.607 0 0027.857.536zm-1.607 9.643H19.82V3.75h6.429v6.429zm1.607 11.25h-3.214v-3.215a1.607 1.607 0 10-3.215 0v3.215h-3.214a1.607 1.607 0 100 3.214h3.215v3.214a1.607 1.607 0 103.214 0v-3.214h3.214a1.607 1.607 0 000-3.214zM11.786.536H2.143A1.607 1.607 0 00.536 2.143v9.643a1.607 1.607 0 001.607 1.607h9.643a1.607 1.607 0 001.607-1.607V2.143A1.607 1.607 0 0011.786.536zm-1.607 9.643h-6.43V3.75h6.43v6.429z" fill="#B791F5"/></svg>
